X:1
C:Jackie Tolliday-Bailey
R:hornpipe
M:4/4
L:1/4
K:Bb
| D G, B,/2C/2 D | C B, A,/2B,/2 C |D G, B,/2C/2 D | C B, A, D |\
| D G, B,/2C/2 D | C D E/2D/2 C | d G B/2c/2 d | c/2B/2A/2B/2 G2 |
L:1/8
d2 g2 gfga | b2 